X:352
T:Absolute Zero
M:C|
C:© Paul Gitlitz 2013
K:C
ea|:
M:C|
"Am"c'2c'a e2ea|c'2c'a eac'2|"G"b2bg  d2dg|b2bg  dgb2|!
"F"a2af c2cf|a2af cfa2 |"G"g2ga gfed |"C"c6ea|!
"Am"c'2c'a e2ea|c'2c'a eac'2|"G"b2bg  d2dg|b2bg  dgb2|!
"F"a2af c2cf|a2af cfa2|"G"gagf e2d2|!
"C"Gc2G c2BA |"G"FB2d B2AG|"F"FCFG AGF2|"G"ECDB, "C"C2EF|!
"C"Gc2e c2BA| "G"FB2d B2AG|"F"FGAc dcAc|"G"ecdB "C"c2 EF|!
"C"Gc2G c2BA |"G"FB2d B2AG|"F"FCFG AGF2|"G"ECDB, "C"C2EF|!
"C"Gc2e c2BA| "G"FB2d B2AG|"F"FGAc defg
M:2/4
|1"G"bgea:|
M:C|
2"G"agab "C"c'4 |]
